images_sukapura_svg/cmd/lc_acceptalltrackedchanges.svg

<svg viewBox="0 0 24 24" xmlns="http://www.w3.org/2000/svg" xmlns:xlink="http://www.w3.org/1999/xlink"><linearGradient id="a" gradientUnits="userSpaceOnUse" x1="15" x2="17" y1="7" y2="4.999999"><stop offset="0" stop-color="#fff"/><stop offset=".77967989" stop-color="#f1f1f1"/><stop offset="1" stop-color="#d5d5d5"/></linearGradient><radialGradient id="b" cx="17" cy="6.555555" gradientTransform="matrix(1.4285714 -.00000006 .00000006 1.4285714 -7.285714 -4.365078)" gradientUnits="userSpaceOnUse" r="7"><stop offset="0" stop-color="#d7d7d7"/><stop offset=".29999998" stop-color="#f7f7f7"/><stop offset="1" stop-color="#fff"/></radialGradient><linearGradient id="c" gradientUnits="userSpaceOnUse" x1="-14.118644" x2="-14.118644" y1="29.61017" y2="11.61017"><stop offset="0" stop-color="#2a9240"/><stop offset="1" stop-color="#32d74b"/></linearGradient><path d="m5 3v3.7285156 2.6777344 11.246094.347656h.3515625 13.2968755.351562v-.347656-11.246094-2.6777344l-4-3.7285156h-6z" fill="url(#b)"/><path d="m5 2c-.554 0-1 .446-1 1v18c0 .554.446 1 1 1h4.1875 8.451172 1.365234c.137039-.00053.268151-.028142.386719-.078125.361002-.150582.613281-.505043.613281-.921875l-.003906-11.9589844v-1.7910156-.2089844c0-.4506799.098038-.4254121-.605469-1.0664062l-3.30664-3.2382813c-.709525-.7368575-.710169-.7363281-1.09375-.7363281h-.332032-.662109zm0 1h9v4c0 .554.446 1 1 1h4v1.0410156.3652344l.003906 11.242188-.003906.003906v.347656h-.351562-9.2148442-.4921876-3.9414062z" fill="#98989d"/><path d="m15 7h4l-4-4z" fill="#fff" fill-rule="evenodd"/><rect fill="#98989d" height="1" ry=".5" width="5" x="7" y="5"/><rect fill="#98989d" height="1" ry=".5" width="3" x="7" y="9"/><path d="m12.5 9c-.277 0-.5.223-.5.5s.223.5.5.5h4c.277 0 .5-.223.5-.5s-.223-.5-.5-.5zm-5 3c-.277 0-.5.223-.5.5s.223.5.5.5h6c.06166 0 .119384-.01492.173828-.03516l.28711-.269532v-.002c.024776-.059347.039062-.124724.039062-.193308 0-.277-.223-.5-.5-.5zm-.013672 6c-.2699599 0-.486328.21637-.486328.486328v.02734c0 .269966.2163701.486332.4863281.486332h4.0273439c.269958 0 .486328-.21637.486328-.486328v-.02734c0-.269966-.21637-.486332-.486328-.486332z" fill="#ff9f0a"/><rect fill="#98989d" height="1" ry=".5" width="4" x="7" y="15"/><path d="m15 3 4 4h-4z" fill="url(#a)"/><path d="m22.007812 5.0156255c-.112629-.02069-.229377-.022137-.349609.00195-.256226.0541431-.492079.1962734-.658203.3945344l-7.353516 8.2265621-2.632812-2.576172c-.440541-.430791-1.2429709-.430757-1.6835939 0-.440564.430768-.440599 1.213717 0 1.644531l3.5117189 3.433594.916015.859375.804688-.929688 8.193359-9.156249c.581205-.618654.04034-1.7536085-.748047-1.8984375zm0 5.9999995c-.112629-.02069-.229377-.02214-.349609.002-.256226.054093-.492079.196223-.658203.394484l-7.353516 8.226563-2.632812-2.576172c-.440541-.430791-1.2429709-.430757-1.6835939 0-.440564.430768-.440599 1.213717 0 1.644531l3.5117189 3.433594.916015.859375.804688-.929688 8.193359-9.15625c.581205-.618653.04034-1.753608-.748047-1.898437z" fill="url(#c)"/></svg>

<?xml version="1.0" encoding="UTF-8" standalone="no"?>
<svg
   xmlns:dc="http://purl.org/dc/elements/1.1/"
   xmlns:cc="http://creativecommons.org/ns#"
   xmlns:rdf="http://www.w3.org/1999/02/22-rdf-syntax-ns#"
   xmlns:svg="http://www.w3.org/2000/svg"
   xmlns="http://www.w3.org/2000/svg"
   xmlns:xlink="http://www.w3.org/1999/xlink"
   xmlns:sodipodi="http://sodipodi.sourceforge.net/DTD/sodipodi-0.dtd"
   xmlns:inkscape="http://www.inkscape.org/namespaces/inkscape"
   viewBox="0 0 24 24"
   version="1.1"
   id="svg34"
   sodipodi:docname="lc_acceptalltrackedchanges.svg"
   inkscape:version="0.92.3 (unknown)"
   inkscape:export-filename="/home/rizmut/Dokumen/Rizmut/Github/libreoffice-style-sukapura/images_sukapura/cmd/lc_acceptalltrackedchanges.png"
   inkscape:export-xdpi="96"
   inkscape:export-ydpi="96">
  <metadata
     id="metadata40">
    <rdf:RDF>
      <cc:Work
         rdf:about="">
        <dc:format>image/svg+xml</dc:format>
        <dc:type
           rdf:resource="http://purl.org/dc/dcmitype/StillImage" />
        <dc:title />
      </cc:Work>
    </rdf:RDF>
  </metadata>
  <defs
     id="defs38">
    <linearGradient
       id="a"
       gradientUnits="userSpaceOnUse"
       x1="15"
       x2="17"
       y1="7"
       y2="4.999999">
      <stop
         offset="0"
         stop-color="#fff"
         id="stop924" />
      <stop
         offset=".77967989"
         stop-color="#f1f1f1"
         id="stop926" />
      <stop
         offset="1"
         stop-color="#d5d5d5"
         id="stop928" />
    </linearGradient>
    <radialGradient
       id="b"
       cx="17"
       cy="6.5555549"
       gradientTransform="matrix(1.4285714,-6e-8,6e-8,1.4285714,-7.285714,-4.365078)"
       gradientUnits="userSpaceOnUse"
       r="7">
      <stop
         offset="0"
         stop-color="#d7d7d7"
         id="stop931" />
      <stop
         offset=".29999998"
         stop-color="#f7f7f7"
         id="stop933" />
      <stop
         offset="1"
         stop-color="#fff"
         id="stop935" />
    </radialGradient>
    <radialGradient
       inkscape:collect="always"
       xlink:href="#b"
       id="radialGradient840"
       gradientUnits="userSpaceOnUse"
       gradientTransform="matrix(1.4285714,-6e-8,6e-8,1.4285714,-7.285714,-4.365078)"
       cx="17"
       cy="6.5555549"
       r="7" />
    <linearGradient
       gradientTransform="translate(-18,-1)"
       id="a-3"
       gradientUnits="userSpaceOnUse"
       x1="14"
       x2="13.79661"
       y1="22"
       y2="2.1355929">
      <stop
         offset="0"
         stop-color="#0040dd"
         id="stop1851" />
      <stop
         offset="1"
         stop-color="#0a84ff"
         id="stop1853" />
    </linearGradient>
    <linearGradient
       inkscape:collect="always"
       xlink:href="#a-36"
       id="linearGradient2475"
       x1="17"
       y1="23"
       x2="17"
       y2="5"
       gradientUnits="userSpaceOnUse" />
    <linearGradient
       gradientTransform="translate(-31.118644,6.6101695)"
       id="a-36"
       gradientUnits="userSpaceOnUse"
       x1="14"
       x2="13.79661"
       y1="22"
       y2="2.1355929">
      <stop
         offset="0"
         stop-color="#0040dd"
         id="stop1586"
         style="stop-color:#2a9240;stop-opacity:1" />
      <stop
         offset="1"
         stop-color="#0a84ff"
         id="stop1588"
         style="stop-color:#32d74b;stop-opacity:1" />
    </linearGradient>
  </defs>
  <sodipodi:namedview
     pagecolor="#ffffff"
     bordercolor="#666666"
     borderopacity="1"
     objecttolerance="10"
     gridtolerance="10"
     guidetolerance="10"
     inkscape:pageopacity="0"
     inkscape:pageshadow="2"
     inkscape:window-width="1366"
     inkscape:window-height="699"
     id="namedview36"
     showgrid="true"
     inkscape:zoom="9.8333333"
     inkscape:cx="-4.1163231"
     inkscape:cy="8.4440199"
     inkscape:window-x="0"
     inkscape:window-y="0"
     inkscape:window-maximized="1"
     inkscape:current-layer="svg34"
     inkscape:snap-global="true">
    <inkscape:grid
       type="xygrid"
       id="grid1558" />
  </sodipodi:namedview>
  <path
     style="fill:url(#radialGradient840)"
     d="M 5,3 V 6.7285156 9.40625 20.652344 21 h 0.3515625 c 4.4322918,0 8.8645835,0 13.2968755,0 H 19 V 20.652344 9.40625 6.7285156 L 15,3 H 9 Z"
     id="path938"
     inkscape:connector-curvature="0"
     sodipodi:nodetypes="cccccccccccccc" />
  <path
     style="fill:#98989d;stroke:none;fill-opacity:1"
     d="M 5 2 C 4.446 2 4 2.446 4 3 L 4 21 C 4 21.554 4.446 22 5 22 L 9.1875 22 L 17.638672 22 L 19.003906 22 C 19.140945 21.99947 19.272057 21.971858 19.390625 21.921875 C 19.751627 21.771293 20.003906 21.416832 20.003906 21 L 20 9.0410156 L 20 7.25 L 20 7.0410156 C 20 6.5903357 20.098038 6.6156035 19.394531 5.9746094 L 16.087891 2.7363281 C 15.378366 1.9994706 15.377722 2 14.994141 2 L 14.662109 2 L 14 2 L 5 2 z M 5 3 L 14 3 L 14 7 C 14 7.554 14.446 8 15 8 L 19 8 L 19 9.0410156 L 19 9.40625 L 19.003906 20.648438 L 19 20.652344 L 19 21 L 18.648438 21 L 9.4335938 21 L 8.9414062 21 L 5 21 L 5 3 z "
     id="path4" />
  <path
     d="m15 7h4l-4-4z"
     fill="#fff"
     fill-rule="evenodd"
     id="path6" />
  <rect
     fill="#98989d"
     height="1"
     ry=".5"
     width="5"
     x="7"
     y="5"
     id="rect18" />
  <rect
     fill="#98989d"
     height="1"
     ry=".5"
     width="3"
     x="7"
     y="9"
     id="rect20" />
  <path
     inkscape:connector-curvature="0"
     style="fill:#ff9f0a;fill-opacity:1"
     d="M 12.5,9 C 12.223,9 12,9.223 12,9.5 12,9.777 12.223,10 12.5,10 h 4 C 16.777,10 17,9.777 17,9.5 17,9.223 16.777,9 16.5,9 Z m -5,3 C 7.223,12 7,12.223 7,12.5 7,12.777 7.223,13 7.5,13 h 6 c 0.06166,0 0.119384,-0.01492 0.173828,-0.03516 l 0.28711,-0.269532 v -0.002 C 13.985714,12.633961 14,12.568584 14,12.5 14,12.223 13.777,12 13.5,12 Z M 7.486328,18 C 7.2163681,18 7,18.21637 7,18.486328 v 0.02734 C 7,18.783634 7.2163701,19 7.4863281,19 H 11.513672 C 11.78363,19 12,18.78363 12,18.513672 v -0.02734 C 12,18.216366 11.78363,18 11.513672,18 Z"
     id="path10" />
  <rect
     fill="#98989d"
     height="1"
     ry=".5"
     width="4"
     x="7"
     y="15"
     id="rect26" />
  <path
     inkscape:connector-curvature="0"
     style="fill:url(#a)"
     d="m 15,3 4,4 h -4 z"
     id="path944" />
  <path
     inkscape:connector-curvature="0"
     d="m 22.007812,5.0156255 c -0.112629,-0.02069 -0.229377,-0.022137 -0.349609,0.00195 C 21.401977,5.0717186 21.166124,5.2138489 21,5.4121099 L 13.646484,13.638672 11.013672,11.0625 c -0.440541,-0.430791 -1.2429709,-0.430757 -1.6835939,0 -0.440564,0.430768 -0.440599,1.213717 0,1.644531 L 12.841797,16.140625 13.757812,17 14.5625,16.070312 22.755859,6.914063 c 0.581205,-0.618654 0.04034,-1.7536085 -0.748047,-1.8984375 z m 0,5.9999995 c -0.112629,-0.02069 -0.229377,-0.02214 -0.349609,0.002 C 21.401977,11.071718 21.166124,11.213848 21,11.412109 L 13.646484,19.638672 11.013672,17.0625 c -0.440541,-0.430791 -1.2429709,-0.430757 -1.6835939,0 -0.440564,0.430768 -0.440599,1.213717 0,1.644531 L 12.841797,22.140625 13.757812,23 14.5625,22.070312 l 8.193359,-9.15625 c 0.581205,-0.618653 0.04034,-1.753608 -0.748047,-1.898437 z"
     style="fill:url(#linearGradient2475);fill-opacity:1.0"
     id="path10-6" />
</svg>
